src/assets/img/icons/duotone-icons/Text/Align-auto.svg

<?xml version="1.0" encoding="UTF-8"?>
<svg width="24px" height="24px" viewBox="0 0 24 24" version="1.1" xmlns="http://www.w3.org/2000/svg" xmlns:xlink="http://www.w3.org/1999/xlink">
    <!-- Generator: Sketch 52.2 (67145) - http://www.bohemiancoding.com/sketch -->
    <title>Stockholm-icons / Text / Align-auto</title>
    <desc>Created with Sketch.</desc>
    <g id="Stockholm-icons-/-Text-/-Align-auto" stroke="none" stroke-width="1" fill="none" fill-rule="evenodd">
        <rect id="bound" x="0" y="0" width="24" height="24"></rect>
        <path d="M9.61764706,5 L8.73529412,7 L3,7 C2.44771525,7 2,6.55228475 2,6 C2,5.44771525 2.44771525,5 3,5 L9.61764706,5 Z M14.3823529,5 L21,5 C21.5522847,5 22,5.44771525 22,6 C22,6.55228475 21.5522847,7 21,7 L15.2647059,7 L14.3823529,5 Z M6.08823529,13 L5.20588235,15 L3,15 C2.44771525,15 2,14.5522847 2,14 C2,13.4477153 2.44771525,13 3,13 L6.08823529,13 Z M17.9117647,13 L21,13 C21.5522847,13 22,13.4477153 22,14 C22,14.5522847 21.5522847,15 21,15 L18.7941176,15 L17.9117647,13 Z M7.85294118,9 L6.97058824,11 L3,11 C2.44771525,11 2,10.5522847 2,10 C2,9.44771525 2.44771525,9 3,9 L7.85294118,9 Z M16.1470588,9 L21,9 C21.5522847,9 22,9.44771525 22,10 C22,10.5522847 21.5522847,11 21,11 L17.0294118,11 L16.1470588,9 Z M4.32352941,17 L3.44117647,19 L3,19 C2.44771525,19 2,18.5522847 2,18 C2,17.4477153 2.44771525,17 3,17 L4.32352941,17 Z M19.6764706,17 L21,17 C21.5522847,17 22,17.4477153 22,18 C22,18.5522847 21.5522847,19 21,19 L20.5588235,19 L19.6764706,17 Z" id="Combined-Shape" fill="#335EEA" opacity="0.3"></path>
        <path d="M11.044,5.256 L13.006,5.256 L18.5,19 L16,19 L14.716,15.084 L9.19,15.084 L7.5,19 L5,19 L11.044,5.256 Z M13.924,13.14 L11.962,7.956 L9.964,13.14 L13.924,13.14 Z" id="A" fill="#335EEA"></path>
    </g>
</svg>

<svg width="24" height="24" viewBox="0 0 24 24" xmlns="http://www.w3.org/2000/svg"><g fill="none" fill-rule="evenodd"><path d="M0 0h24v24H0z"/><path d="M9.618 5l-.883 2H3a1 1 0 110-2h6.618zm4.764 0H21a1 1 0 010 2h-5.735l-.883-2zm-8.294 8l-.882 2H3a1 1 0 010-2h3.088zm11.824 0H21a1 1 0 010 2h-2.206l-.882-2zM7.852 9l-.881 2H3a1 1 0 010-2h4.853zm8.295 0H21a1 1 0 010 2h-3.97l-.883-2zM4.324 17l-.883 2H3a1 1 0 010-2h1.324zm15.352 0H21a1 1 0 010 2h-.441l-.883-2z" fill="#335EEA" opacity=".3"/><path d="M11.044 5.256h1.962L18.5 19H16l-1.284-3.916H9.19L7.5 19H5l6.044-13.744zm2.88 7.884l-1.962-5.184-1.998 5.184h3.96z" fill="#335EEA"/></g></svg>
